X: 28
T: No_123_The_Wind_Blows_from_the_Sea.krn
N: Derived from No_123_The_Wind_Blows_from_the_Sea.krn
%%abc-version 2.0
%%abcx-abcm2ps-target-version 5.9.1 (29 Sep 2008)
%%abc-creator hum2abc beta
%%abcx-conversion-date 2019/03/15 08:37:56
%%humdrum-veritas 4114026889
%%humdrum-veritas-data 2007459785
%%linebreak <none>
%%barnumbers 0
L: 1/8
M: 3/4
K: Bb clef=bass
[K:clef=bass][M:3/4]C3C CC ||  
[M:2/4]C3G, | 
C/C3/ CC ]|:  
CB, G,G, | 
B,2G,B, ||  
[M:3/4]G,F, F,G, G, z/ B,/ ||  
[M:2/4]B,2B,C | 
B,G, F,F, | 
G,2F,G, ||  
[M:3/4]F,2D,F, F, z | 
G,G, G,F, F,F, ||  
[M:2/4]G,2G,F, | 
G,G, F,G, | 
E,2(E,B,,/) z/ | 
F,/F,3/ E,F, ||  
[M:3/4]G,/F,3/ F,F, F,/E,3/ ||  
[M:2/4]F,2F,F, ||  
[M:3/4]F,3/F,/F,4 | 
F,CC2CC :|]  



